__todo__/pnpm.svg

<svg height="368" preserveAspectRatio="xMidYMid" viewBox="0 0 512 368" width="512" xmlns="http://www.w3.org/2000/svg"><path d="m511.999952 126.273838v114.794397h-114.794398v-114.794397zm0-126.273838v114.794398h-114.794398v-114.794398zm-126.273837 0v114.794398h-114.794398v-114.794398zm-126.273838 0v114.794398h-114.794398v-114.794398z" fill="#f9ad00"/><path d="m385.726115 252.547675v114.794398h-114.794398v-114.794398zm126.273837 0v114.794398h-114.794398v-114.794398zm-252.547675 0v114.794398h-114.794398v-114.794398zm126.273838-126.273837v114.794397h-114.794398v-114.794397zm-364.2228284 33.497005c3.8570918 0 7.4409729.498207 10.7516433 1.494623 3.3106704.996415 6.1552756 2.523181 8.5338155 4.580296 2.3785399 2.057116 4.242801 4.644582 5.5927831 7.762398 1.3499821 3.117815 2.0249731 6.830266 2.0249731 11.137352 0 4.114231-.5785637 7.714184-1.7356912 10.799857-1.1571276 3.085673-2.7963916 5.673139-4.917792 7.762397-2.1214005 2.089258-4.6767238 3.648166-7.6659699 4.676724s-6.3159878 1.542837-9.980225 1.542837c-2.7642491 0-5.3356436-.417852-7.7141835-1.253555v16.006931l-.1551966.04479c-.648174.180302-1.6249996.374297-2.9304768.581987-1.414267.224997-2.8606764.337496-4.33922825.337496-1.41426698 0-2.68389302-.096428-3.80887811-.289282-1.1249851-.192855-2.07318683-.578564-2.84460518-1.157128s-1.34998212-1.366053-1.7356913-2.362469c-.38570917-.996415-.57856376-2.298183-.57856376-3.905305v-46.285101l.00492851-.342853c.04599939-1.579979.41399451-2.879962 1.10398537-3.899948.73927592-1.092843 1.75176251-2.089258 3.03745977-2.989246 1.99283074-1.285698 4.46779796-2.314255 7.42490165-3.085674 2.9571037-.771418 6.2677741-1.157127 9.9320113-1.157127zm112.6270794 0c3.857092 0 7.440973.498207 10.751643 1.494623 3.310671.996415 6.155276 2.523181 8.533816 4.580296 2.37854 2.057116 4.242801 4.644582 5.592783 7.762398 1.349982 3.117815 2.024973 6.830266 2.024973 11.137352 0 4.114231-.578564 7.714184-1.735691 10.799857-1.157128 3.085673-2.796392 5.673139-4.917792 7.762397-2.121401 2.089258-4.676724 3.648166-7.66597 4.676724s-6.315988 1.542837-9.980225 1.542837c-2.764249 0-5.335644-.417852-7.714183-1.253555v16.006931l-.155197.04479c-.648174.180302-1.625.374297-2.930477.581987-1.414267.224997-2.860676.337496-4.339228.337496-1.414267 0-2.683893-.096428-3.808878-.289282-1.124985-.192855-2.073187-.578564-2.844605-1.157128-.771419-.578564-1.349983-1.366053-1.735692-2.362469-.385709-.996415-.578563-2.298183-.578563-3.905305v-46.285101l.004928-.342853c.045999-1.579979.413995-2.879962 1.103985-3.899948.739276-1.092843 1.751763-2.089258 3.03746-2.989246 1.992831-1.285698 4.467798-2.314255 7.424902-3.085674 2.957104-.771418 6.267774-1.157127 9.932011-1.157127zm-54.2885665 0c7.2641895 0 12.8569726 1.59105 16.7783492 4.773151 3.9213763 3.182101 5.8820653 7.601685 5.8820653 13.258753v30.181743l-.168413.048214c-.645751.176783-1.6021.353566-2.8690471.53035-1.3821246.192854-2.8124628.289282-4.2910146.289282-1.414267 0-2.683893-.096428-3.8088781-.289282-1.1249851-.192855-2.0731868-.578564-2.8446052-1.157128s-1.3660533-1.366053-1.7839049-2.362469c-.4178516-.996415-.6267775-2.298183-.6267775-3.905305v-22.756841l-.0046744-.310251c-.0560934-1.835056-.6170278-3.19412-1.6828032-4.077191-1.1249851-.932131-2.6517506-1.398196-4.5802965-1.398196-1.2856972 0-2.5553233.160712-3.8088781.482136-1.2535548.321425-2.3303263.803561-3.2303143 1.44641v33.460271l-.168413.048214c-.6457504.176783-1.6020993.353566-2.8690468.53035-1.3821246.192854-2.8124628.289282-4.2910146.289282-1.414267 0-2.683893-.096428-3.8088781-.289282-1.1249851-.192855-2.0731868-.578564-2.8446052-1.157128-.7714183-.578564-1.3660533-1.366053-1.7839049-2.362469-.4178516-.996415-.6267774-2.298183-.6267774-3.905305v-28.928188l.0049285-.342853c.0459994-1.579979.4139945-2.879962 1.1039853-3.899948.739276-1.092843 1.7517626-2.089258 3.0374598-2.989246 2.1856853-1.542837 4.9338632-2.796392 8.2445337-3.760665 3.3106704-.964273 6.9909788-1.446409 11.0409251-1.446409zm141.2659855 0c2.442825 0 4.837436.321424 7.183834.964273 2.346397.642848 4.435655 1.655335 6.267774 3.03746 1.832119 1.382124 3.294599 3.214243 4.387442 5.496355 1.092842 2.282113 1.639264 5.062433 1.639264 8.340961v30.374598l-.168413.048214c-.64575.176783-1.602099.353566-2.869047.53035-1.382124.192854-2.812463.289282-4.291015.289282-1.414267 0-2.683893-.096428-3.808878-.289282-1.124985-.192855-2.073186-.578564-2.844605-1.157128-.771418-.578564-1.366053-1.366053-1.783905-2.362469-.417851-.996415-.626777-2.298183-.626777-3.905305v-23.046123l-.00506-.316514c-.05734-1.76575-.602075-3.058442-1.634204-3.878074-1.092843-.867845-2.571395-1.301768-4.435656-1.301768-.899988 0-1.864261.208926-2.892819.626777-1.028557.417852-1.799976.851775-2.314255 1.301769.064285.257139.096428.498207.096428.723205v32.737066l-.183815.048214c-.699767.176783-1.683125.353566-2.950072.53035-1.382125.192854-2.780321.289282-4.194588.289282s-2.683893-.096428-3.808878-.289282c-1.124985-.192855-2.073187-.578564-2.844605-1.157128s-1.366053-1.366053-1.783905-2.362469c-.417851-.996415-.626777-2.298183-.626777-3.905305v-23.046123l-.004942-.3001c-.059299-1.774156-.652286-3.072318-1.778963-3.894488-1.18927-.867845-2.619608-1.301768-4.291015-1.301768-1.157127 0-2.153543.176783-2.989246.53035s-1.542837.691062-2.1214 1.012487v33.84598l-.168413.048214c-.645751.176783-1.6021.353566-2.869047.53035-1.382125.192854-2.812463.289282-4.291015.289282-1.414267 0-2.683893-.096428-3.808878-.289282-1.124985-.192855-2.073187-.578564-2.844605-1.157128s-1.366053-1.366053-1.783905-2.362469c-.417852-.996415-.626777-2.298183-.626777-3.905305v-29.121043l.004928-.342424c.045999-1.575979.413995-2.843962 1.103985-3.803949.739276-1.028558 1.751763-1.992831 3.03746-2.892819 2.185686-1.542837 4.901721-2.796392 8.148107-3.760665 3.246385-.964273 6.637412-1.446409 10.173079-1.446409 2.635679 0 5.223145.369638 7.762397 1.108914s4.741009 1.848189 6.60527 3.326741c1.928546-1.285697 4.09816-2.346397 6.508842-3.1821 2.410683-.835704 5.319573-1.253555 8.72667-1.253555zm-199.0259346 12.82483c-1.2214124 0-2.3142551.144641-3.278528.433923-.964273.289282-1.7999762.626777-2.5071097 1.012486v21.214005l.3910663.187498c.6607055.303567 1.3660533.562492 2.1160434.776775.899988.257139 1.864261.385709 2.8928188.385709 6.6213408 0 9.9320113-3.953519 9.9320113-11.860557 0-4.114231-.819632-7.167762-2.458896-9.160593s-4.0017327-2.989246-7.0874061-2.989246zm112.6270796 0c-1.221413 0-2.314255.144641-3.278528.433923s-1.799976.626777-2.50711 1.012486v21.214005l.391066.187498c.660706.303567 1.366054.562492 2.116044.776775.899988.257139 1.864261.385709 2.892819.385709 6.621341 0 9.932011-3.953519 9.932011-11.860557 0-4.114231-.819632-7.167762-2.458896-9.160593s-4.001733-2.989246-7.087406-2.989246z" fill="#4e4e4e"/></svg>

<?xml version="1.0" encoding="UTF-8"?>
<svg width="512px" height="368px" viewBox="0 0 512 368" version="1.1" xmlns="http://www.w3.org/2000/svg" xmlns:xlink="http://www.w3.org/1999/xlink" preserveAspectRatio="xMidYMid">
    <title>pnpm</title>
    <g>
				<path d="M511.999952,126.273838 L511.999952,241.068235 L397.205554,241.068235 L397.205554,126.273838 L511.999952,126.273838 Z M511.999952,0 L511.999952,114.794398 L397.205554,114.794398 L397.205554,0 L511.999952,0 Z M385.726115,0 L385.726115,114.794398 L270.931717,114.794398 L270.931717,0 L385.726115,0 Z M259.452277,0 L259.452277,114.794398 L144.657879,114.794398 L144.657879,0 L259.452277,0 Z" fill="#F9AD00"></path>
				<path d="M385.726115,252.547675 L385.726115,367.342073 L270.931717,367.342073 L270.931717,252.547675 L385.726115,252.547675 Z M511.999952,252.547675 L511.999952,367.342073 L397.205554,367.342073 L397.205554,252.547675 L511.999952,252.547675 Z M259.452277,252.547675 L259.452277,367.342073 L144.657879,367.342073 L144.657879,252.547675 L259.452277,252.547675 Z M385.726115,126.273838 L385.726115,241.068235 L270.931717,241.068235 L270.931717,126.273838 L385.726115,126.273838 Z M21.5032866,159.770843 C25.3603784,159.770843 28.9442595,160.26905 32.2549299,161.265466 C35.5656003,162.261881 38.4102055,163.788647 40.7887454,165.845762 C43.1672853,167.902878 45.0315464,170.490344 46.3815285,173.60816 C47.7315106,176.725975 48.4065016,180.438426 48.4065016,184.745512 C48.4065016,188.859743 47.8279379,192.459696 46.6708104,195.545369 C45.5136828,198.631042 43.8744188,201.218508 41.7530184,203.307766 C39.6316179,205.397024 37.0762946,206.955932 34.0870485,207.98449 C31.0978024,209.013048 27.7710607,209.527327 24.1068235,209.527327 C21.3425744,209.527327 18.7711799,209.109475 16.39264,208.273772 L16.39264,208.273772 L16.39264,224.280703 L16.2374434,224.325493 C15.5892694,224.505795 14.6124438,224.69979 13.3069666,224.90748 C11.8926996,225.132477 10.4462902,225.244976 8.96773835,225.244976 C7.55347137,225.244976 6.28384533,225.148548 5.15886024,224.955694 C4.03387514,224.762839 3.08567341,224.37713 2.31425506,223.798566 C1.54283671,223.220002 0.964272941,222.432513 0.578563765,221.436097 C0.192854588,220.439682 1.42108547e-14,219.137914 1.42108547e-14,217.530792 L1.42108547e-14,217.530792 L1.42108547e-14,171.245691 L0.00492850614,170.902838 C0.0509278968,169.322859 0.418923022,168.022876 1.10891388,167.00289 C1.8481898,165.910047 2.86067639,164.913632 4.14637365,164.013644 C6.13920439,162.727946 8.61417161,161.699389 11.5712753,160.92797 C14.528379,160.156552 17.8390494,159.770843 21.5032866,159.770843 Z M134.130366,159.770843 C137.987458,159.770843 141.571339,160.26905 144.882009,161.265466 C148.19268,162.261881 151.037285,163.788647 153.415825,165.845762 C155.794365,167.902878 157.658626,170.490344 159.008608,173.60816 C160.35859,176.725975 161.033581,180.438426 161.033581,184.745512 C161.033581,188.859743 160.455017,192.459696 159.29789,195.545369 C158.140762,198.631042 156.501498,201.218508 154.380098,203.307766 C152.258697,205.397024 149.703374,206.955932 146.714128,207.98449 C143.724882,209.013048 140.39814,209.527327 136.733903,209.527327 C133.969654,209.527327 131.398259,209.109475 129.01972,208.273772 L129.01972,208.273772 L129.01972,224.280703 L128.864523,224.325493 C128.216349,224.505795 127.239523,224.69979 125.934046,224.90748 C124.519779,225.132477 123.07337,225.244976 121.594818,225.244976 C120.180551,225.244976 118.910925,225.148548 117.78594,224.955694 C116.660955,224.762839 115.712753,224.37713 114.941335,223.798566 C114.169916,223.220002 113.591352,222.432513 113.205643,221.436097 C112.819934,220.439682 112.62708,219.137914 112.62708,217.530792 L112.62708,217.530792 L112.62708,171.245691 L112.632008,170.902838 C112.678007,169.322859 113.046003,168.022876 113.735993,167.00289 C114.475269,165.910047 115.487756,164.913632 116.773453,164.013644 C118.766284,162.727946 121.241251,161.699389 124.198355,160.92797 C127.155459,160.156552 130.466129,159.770843 134.130366,159.770843 Z M79.8417995,159.770843 C87.105989,159.770843 92.6987721,161.361893 96.6201487,164.543994 C100.541525,167.726095 102.502214,172.145679 102.502214,177.802747 L102.502214,177.802747 L102.502214,207.98449 L102.333801,208.032704 C101.68805,208.209487 100.731701,208.38627 99.4647539,208.563054 C98.0826293,208.755908 96.6522911,208.852336 95.1737393,208.852336 C93.7594723,208.852336 92.4898463,208.755908 91.3648612,208.563054 C90.2398761,208.370199 89.2916744,207.98449 88.520256,207.405926 C87.7488376,206.827362 87.1542027,206.039873 86.7363511,205.043457 C86.3184995,204.047042 86.1095736,202.745274 86.1095736,201.138152 L86.1095736,201.138152 L86.1095736,178.381311 L86.1048992,178.07106 C86.0488058,176.236004 85.4878714,174.87694 84.422096,173.993869 C83.2971109,173.061738 81.7703454,172.595673 79.8417995,172.595673 C78.5561023,172.595673 77.2864762,172.756385 76.0329214,173.077809 C74.7793666,173.399234 73.7025951,173.88137 72.8026071,174.524219 L72.8026071,174.524219 L72.8026071,207.98449 L72.6341941,208.032704 C71.9884437,208.209487 71.0320948,208.38627 69.7651473,208.563054 C68.3830227,208.755908 66.9526845,208.852336 65.4741327,208.852336 C64.0598657,208.852336 62.7902397,208.755908 61.6652546,208.563054 C60.5402695,208.370199 59.5920678,207.98449 58.8206494,207.405926 C58.0492311,206.827362 57.4545961,206.039873 57.0367445,205.043457 C56.6188929,204.047042 56.4099671,202.745274 56.4099671,201.138152 L56.4099671,201.138152 L56.4099671,172.209964 L56.4148956,171.867111 C56.460895,170.287132 56.8288901,168.987149 57.5188809,167.967163 C58.2581569,166.87432 59.2706435,165.877905 60.5563407,164.977917 C62.742026,163.43508 65.4902039,162.181525 68.8008744,161.217252 C72.1115448,160.252979 75.7918532,159.770843 79.8417995,159.770843 Z M221.107785,159.770843 C223.55061,159.770843 225.945221,160.092267 228.291619,160.735116 C230.638016,161.377964 232.727274,162.390451 234.559393,163.772576 C236.391512,165.1547 237.853992,166.986819 238.946835,169.268931 C240.039677,171.551044 240.586099,174.331364 240.586099,177.609892 L240.586099,177.609892 L240.586099,207.98449 L240.417686,208.032704 C239.771936,208.209487 238.815587,208.38627 237.548639,208.563054 C236.166515,208.755908 234.736176,208.852336 233.257624,208.852336 C231.843357,208.852336 230.573731,208.755908 229.448746,208.563054 C228.323761,208.370199 227.37556,207.98449 226.604141,207.405926 C225.832723,206.827362 225.238088,206.039873 224.820236,205.043457 C224.402385,204.047042 224.193459,202.745274 224.193459,201.138152 L224.193459,201.138152 L224.193459,178.092029 L224.188399,177.775515 C224.131059,176.009765 223.586324,174.717073 222.554195,173.897441 C221.461352,173.029596 219.9828,172.595673 218.118539,172.595673 C217.218551,172.595673 216.254278,172.804599 215.22572,173.22245 C214.197163,173.640302 213.425744,174.074225 212.911465,174.524219 C212.97575,174.781358 213.007893,175.022426 213.007893,175.247424 L213.007893,175.247424 L213.007893,207.98449 L212.824078,208.032704 C212.124311,208.209487 211.140953,208.38627 209.874006,208.563054 C208.491881,208.755908 207.093685,208.852336 205.679418,208.852336 C204.265151,208.852336 202.995525,208.755908 201.87054,208.563054 C200.745555,208.370199 199.797353,207.98449 199.025935,207.405926 C198.254517,206.827362 197.659882,206.039873 197.24203,205.043457 C196.824179,204.047042 196.615253,202.745274 196.615253,201.138152 L196.615253,201.138152 L196.615253,178.092029 L196.610311,177.791929 C196.551012,176.017773 195.958025,174.719611 194.831348,173.897441 C193.642078,173.029596 192.21174,172.595673 190.540333,172.595673 C189.383206,172.595673 188.38679,172.772456 187.551087,173.126023 C186.715384,173.47959 186.00825,173.817085 185.429687,174.13851 L185.429687,174.13851 L185.429687,207.98449 L185.261274,208.032704 C184.615523,208.209487 183.659174,208.38627 182.392227,208.563054 C181.010102,208.755908 179.579764,208.852336 178.101212,208.852336 C176.686945,208.852336 175.417319,208.755908 174.292334,208.563054 C173.167349,208.370199 172.219147,207.98449 171.447729,207.405926 C170.676311,206.827362 170.081676,206.039873 169.663824,205.043457 C169.245972,204.047042 169.037047,202.745274 169.037047,201.138152 L169.037047,201.138152 L169.037047,172.017109 L169.041975,171.674685 C169.087974,170.098706 169.45597,168.830723 170.14596,167.870736 C170.885236,166.842178 171.897723,165.877905 173.18342,164.977917 C175.369106,163.43508 178.085141,162.181525 181.331527,161.217252 C184.577912,160.252979 187.968939,159.770843 191.504606,159.770843 C194.140285,159.770843 196.727751,160.140481 199.267003,160.879757 C201.806255,161.619033 204.008012,162.727946 205.872273,164.206498 C207.800819,162.920801 209.970433,161.860101 212.381115,161.024398 C214.791798,160.188694 217.700688,159.770843 221.107785,159.770843 Z M22.0818504,172.595673 C20.860438,172.595673 19.7675953,172.740314 18.8033224,173.029596 C17.8390494,173.318878 17.0033462,173.656373 16.2962127,174.042082 L16.2962127,174.042082 L16.2962127,195.256087 L16.687279,195.443585 C17.3479845,195.747152 18.0533323,196.006077 18.8033224,196.22036 C19.7033104,196.477499 20.6675834,196.606069 21.6961412,196.606069 C28.317482,196.606069 31.6281525,192.65255 31.6281525,184.745512 C31.6281525,180.631281 30.8085205,177.57775 29.1692565,175.584919 C27.5299925,173.592088 25.1675238,172.595673 22.0818504,172.595673 Z M134.70893,172.595673 C133.487517,172.595673 132.394675,172.740314 131.430402,173.029596 C130.466129,173.318878 129.630426,173.656373 128.923292,174.042082 L128.923292,174.042082 L128.923292,195.256087 L129.314358,195.443585 C129.975064,195.747152 130.680412,196.006077 131.430402,196.22036 C132.33039,196.477499 133.294663,196.606069 134.323221,196.606069 C140.944562,196.606069 144.255232,192.65255 144.255232,184.745512 C144.255232,180.631281 143.4356,177.57775 141.796336,175.584919 C140.157072,173.592088 137.794603,172.595673 134.70893,172.595673 Z" fill="#4E4E4E"></path>
		</g>
</svg>
